X: 6405
T: Castle Of Dromore, The
R: waltz
M: 3/4
K: Dmajor
FG|A4 A2|A4 A2|B4 A2|A2 B2 c2|d4 G2|F4- FG|A6-|A4 Bc|
d4 D2|D4 F2|E4 D2|D3 E F2|G4 B2|A4 G2|F6-|F2 B2 c2|
d3 e d2|c2 d2 c2|B3 c B2|A4- AG|F4 A2|G2 (3FGF E2|D6|F4 A2|
G3 F G2|E4 G2|F2 G2 A2|D4 F2|G3 F E2|D4 C2|D6-|D4||

